!!!OTL: 89. Schill. / [Eine Geisterstimme.]
!!!COM: Enzelling
!!!ODT: 18(.)9
!!!ARE: Europa, Mitteleuropa, Deutschland
!!!SCT: B0089
!!!TXL: @@DE
!!!YEM: Copyright 1995, estate of Helmut Schaffrath.
**kern	**text
*ICvox	*
*Ivox	*
*M4/4	*
*met(c)	*
*clefG2	*
*k[]	*
*C:	*
!LO:TX:a:t=Langſam und feierlich.	!
{8c	1._Ala-
8e	-get
=1	=1
4.g	nicht,
8g	daß
4.g	ich
8g	ge-
=2	=2
4a	-fal-
4g	-len,
4r}	.
{8g	laſ-
8g	-ſet
=3	=3
4cc	mich
4b	hi-
4a	-nü-
4g#	-ber
=4	=4
2a	ʒiehn
4r}	.
{8cc	ʒu
8a	der
=5	=5
4.g	Va-
8g	-ter
4g	Wol-
8aL	-ken-
8bJ	.
=6	=6
4dd	-hal-
4cc	len,
4r}	.
{8cc	wo
8ee	die
=7	=7
4dd	ew-
8ccL	-gen
8aJ	.
4g	Freu-
4f#	-den
=8	=8
2g	blühn.
4r}	.
=||	=||
{8dd	2._Nur
8cc	der
=9	=9
4.b	Frei-
8a	-heit
4g	galt
4dd	mein
=10	=10
8ccL	Stre-
8bJ	.
4b	-ben,
4r}	.
{8b	in
8b	der
=11	=11
4.cc	Frei-
8cc	-heit
(4ee-	leb
8dd)	.
8cc	ich
=12	=12
2b	nun,
4r}	.
{8g	und
8f	voll-
=13	=13
4.e	-en-
8e	-det
4.a	iſt
8g	mein
=14	=14
8gL	Le-
8fJ	.
4f	-ben,
4r}	.
{8e	und
8d	ich
=15	=15
4e	wag'
4g	es
4a	aus-
4b	-ʒu-
=16	=16
2cc	-ruhn.
4r}	.
==	==
!!!AGN: Helden -, Ehren -, Gedaechtnis -, Kriegs - Lied
!!!GTL: Helden- und Ehrengedächtnißlieder
!!!ONB: ESAC (Essen Associative Code) Database: BOEHME
!!!AMT: simple quadruple
!!!AIN: vox
!!!EED: Helmut Schaffrath
!!!EEV: 1.0
!!@@COMMENT:"Tert von Max v. Schenkendorf, 1809. Melodie von Enʒelling (1819) "weiland Burſch ʒu Jena"."
!!@@END:
!!Text: Max v. Schenkendorf
!!!URL-scan: https://archive.org/details/BoehmeVtLieder1895/page/n99/mode/2up
!!!ENC: Anna Maria Matuszewska
!!!EEV: 2024/17/06
*-	*-
